icons/djembe-drum-two-color.svg

<?xml version="1.0" encoding="UTF-8"?><svg id="uuid-a368bfb8-a780-4782-a6cb-31017516af02" xmlns="http://www.w3.org/2000/svg" viewBox="0 0 50 50"><path d="M38.77,7.79c-.28,0-.5-.22-.5-.5v-.38c0-1.3-1.06-2.36-2.36-2.36H17.03c-1.3,0-2.36,1.06-2.36,2.36v.38c0,.28-.22,.5-.5,.5h-1.24v3.07h.94c.25,0,.46,.19,.5,.44l.65,5.19,.33-1.18,2.4,8.53h-1.81l.06,.51c.58,2.96,2.45,5.56,5.12,7.09,.17,.1,.27,.29,.25,.48l-1.4,13.55c-.03,.25-.24,.45-.5,.45h-1.42v2.28h16.65v-2.28h-1.41c-.26,0-.47-.19-.5-.45l-1.4-13.58c-.02-.2,.08-.38,.25-.48,2.62-1.52,4.47-4.09,5.07-7.03l1.56-13.08c.03-.25,.24-.44,.5-.44h1.04v-3.07h-1.04Zm-22.76,6.18h4.8l-2.4,8.53-2.4-8.53Zm3.06,9.88l2.41-8.55,2.45,8.55h-4.86Zm3.06-9.88h4.8l-2.37,8.44-2.42-8.44Zm3.06,9.88l2.4-8.54,2.43,8.54h-4.84Zm3.06-9.88h4.8l-2.37,8.53-2.43-8.53Zm6.71,8.67c-.08,.41-.2,.81-.33,1.21h-3.28l2.37-8.52,1.47,5.24s.01,.02,.02,.03l-.24,2.05Zm.55-4.62l-1.14-4.05h1.62l-.48,4.05Z" fill="#ffcd00"/><g><path d="M30.13,34.52h-11l.38-3.62c-.33-.16-.64-.34-.95-.53l-1.35,12.81h-1.41c-.28,0-.5,.22-.5,.5v3.28c0,.28,.22,.5,.5,.5h17.65c.28,0,.5-.22,.5-.5v-3.28c0-.28-.22-.5-.5-.5h-1.4l-1.36-12.84c-.31,.19-.62,.37-.95,.53l.39,3.65Zm2.82,11.93H16.3v-2.28h16.65v2.28Zm-14.27-7.62h11.91l.44,4.19-12.81,.15,.46-4.34Zm11.56-3.31l.24,2.31h-11.7l.24-2.31h11.21Z"/><path d="M36.46,10.11l-.34,2.85H13.05l-.36-2.85h-1.01l1.27,10.16s0,.03,0,.04l.31,2.45c.12,.6,.29,1.17,.49,1.73,0,.02,.01,.04,.02,.06,.91,2.45,2.62,4.48,4.79,5.81,.31,.19,.62,.37,.95,.53,1.53,.76,3.25,1.19,5.04,1.2h.05c1.83,0,3.57-.44,5.14-1.22,.33-.16,.64-.34,.95-.53,2.63-1.64,4.6-4.32,5.25-7.55l1.52-12.68h-1.01Zm-11.89,20.98c-4.2-.02-7.93-2.55-9.59-6.25h19.27c-1.68,3.73-5.42,6.25-9.63,6.25h-.05Zm10.07-7.25h-3.28l2.37-8.52,1.47,5.24s.01,.02,.02,.03l-.24,2.05c-.08,.41-.2,.81-.33,1.21Zm-13.15-8.55l2.45,8.55h-4.86l2.41-8.55Zm8.55,8.55h-4.84l2.4-8.54,2.43,8.54Zm.66-1.35l-2.43-8.53h4.8l-2.37,8.53Zm-6.13-.09l-2.42-8.44h4.8l-2.37,8.44Zm-6.15,.09l-2.4-8.53h4.8l-2.4,8.53Zm-.66,1.35h-3.16c-.13-.4-.25-.81-.33-1.24l-.29-2.35,1.39-4.95,2.4,8.53Zm17.76-5.83l-1.14-4.05h1.62l-.48,4.05ZM14.69,13.96l-1.05,3.74-.47-3.74h1.52Z"/><path d="M38.56,5.04h-1.05c-.07-1.79-1.54-3.24-3.35-3.24H15.28c-1.81,0-3.28,1.44-3.35,3.24h-1.25c-.28,0-.5,.22-.5,.5v4.07c0,.28,.22,.5,.5,.5h27.87c.28,0,.5-.22,.5-.5V5.54c0-.28-.22-.5-.5-.5Zm-.5,4.07H11.19v-3.07h26.87v3.07ZM15.28,2.8h18.88c1.26,0,2.28,.99,2.35,2.24H12.94c.06-1.24,1.09-2.24,2.35-2.24Z"/></g></svg>

<svg id="f8912aef-a7d7-4dfa-bce5-91c4e0346669" data-name="ICONS" xmlns="http://www.w3.org/2000/svg" viewBox="0 0 50 50"><path d="M38.77,7.79a.51.51,0,0,1-.5-.5V6.91a2.36,2.36,0,0,0-2.35-2.36H17a2.36,2.36,0,0,0-2.35,2.36v.38a.51.51,0,0,1-.5.5H12.94v3.07h.93a.49.49,0,0,1,.5.44L15,16.49l.33-1.18,2.4,8.53H15.94l.06.51a10.63,10.63,0,0,0,5.12,7.09.5.5,0,0,1,.25.48L20,45.48a.5.5,0,0,1-.5.45H18.05V48.2H34.7V45.93H33.29a.5.5,0,0,1-.49-.45L31.4,31.89a.5.5,0,0,1,.24-.48,10.57,10.57,0,0,0,5.07-7L38.28,11.3a.5.5,0,0,1,.49-.44h1V7.79ZM16,14h4.8l-2.4,8.53Zm3.06,9.88,2.41-8.55,2.45,8.55ZM22.14,14h4.79L24.56,22.4Zm3.05,9.88L27.6,15.3,30,23.84ZM28.26,14h4.8l-2.37,8.53ZM35,22.63a9.35,9.35,0,0,1-.33,1.21H31.35l2.37-8.52,1.47,5.23,0,0ZM35.52,18,34.38,14H36Z" fill="#fdd600"/><path d="M30.13,34.52h-11l.38-3.63c-.33-.16-.64-.34-.95-.53L17.21,43.18H15.8a.5.5,0,0,0-.5.5V47a.5.5,0,0,0,.5.5H33.45A.5.5,0,0,0,34,47V43.68a.5.5,0,0,0-.5-.5h-1.4L30.7,30.34c-.31.19-.63.37-.95.53ZM33,46.45H16.3V44.18H33ZM18.68,38.83H30.59L31,43l-12.81.15Zm11.56-3.31.24,2.31H18.79L19,35.52Z" fill="#231f20"/><path d="M36.46,10.11,36.12,13H13.05l-.36-2.85h-1L13,20.26v0l.31,2.45a12.28,12.28,0,0,0,.49,1.73s0,0,0,.06a11.53,11.53,0,0,0,4.79,5.81c.31.19.62.37.95.53a11.44,11.44,0,0,0,5,1.2h.05a11.48,11.48,0,0,0,5.14-1.22c.32-.16.64-.34.95-.53A11.63,11.63,0,0,0,36,22.79l1.52-12.68Zm-11.9,21A10.59,10.59,0,0,1,15,24.84H34.24a10.57,10.57,0,0,1-9.63,6.25Zm10.07-7.25H31.35l2.37-8.52,1.47,5.23,0,0-.25,2A9.35,9.35,0,0,1,34.63,23.84ZM21.48,15.29l2.45,8.55H19.07ZM30,23.84H25.19L27.6,15.3Zm.66-1.35L28.26,14h4.8Zm-6.13-.09L22.14,14h4.79Zm-6.15.09L16,14h4.8Zm-.66,1.35H14.59c-.13-.41-.25-.82-.34-1.24L14,20.25l1.39-4.94ZM35.52,18,34.38,14H36ZM14.69,14l-1,3.74L13.17,14Z" fill="#231f20"/><path d="M38.56,5H37.51A3.35,3.35,0,0,0,34.17,1.8H15.28A3.35,3.35,0,0,0,11.94,5H10.69a.5.5,0,0,0-.5.5V9.61a.5.5,0,0,0,.5.5H38.56a.5.5,0,0,0,.5-.5V5.54A.5.5,0,0,0,38.56,5Zm-.5,4.07H11.19V6H38.06ZM15.28,2.8H34.17A2.34,2.34,0,0,1,36.51,5H12.94A2.35,2.35,0,0,1,15.28,2.8Z" fill="#231f20"/></svg>
